dist/img/svg/mail.svg

<svg width="26" height="26" viewBox="0 0 26 26" fill="none" xmlns="http://www.w3.org/2000/svg">
<path d="M20.9819 5.47363H6.38545C4.37843 5.47363 2.73633 7.11574 2.73633 9.12276V18.2456C2.73633 20.2526 4.37843 21.8947 6.38545 21.8947H20.9819C22.989 21.8947 24.6311 20.2526 24.6311 18.2456V9.12276C24.6311 7.11574 22.989 5.47363 20.9819 5.47363ZM22.4416 10.7649L15.2346 15.5999C14.7784 15.8736 14.2311 16.0561 13.6837 16.0561C13.1363 16.0561 12.589 15.8736 12.1328 15.5999L4.9258 10.7649C4.56089 10.4912 4.46966 9.94381 4.74335 9.48767C5.01703 9.12276 5.5644 9.03153 6.02054 9.30521L13.2276 14.1403C13.5012 14.3228 13.9574 14.3228 14.2311 14.1403L21.4381 9.30521C21.8942 9.03153 22.4416 9.12276 22.7153 9.5789C22.8977 9.94381 22.8065 10.4912 22.4416 10.7649Z" fill="currentColor"/>
</svg>

<svg width="26" height="26" viewBox="0 0 26 26" fill="none" xmlns="http://www.w3.org/2000/svg"><path d="M20.982 5.474H6.385a3.66 3.66 0 00-3.649 3.649v9.123a3.66 3.66 0 003.65 3.649h14.596a3.66 3.66 0 003.65-3.65V9.124a3.66 3.66 0 00-3.65-3.65zm1.46 5.29L15.235 15.6c-.457.274-1.004.456-1.551.456-.548 0-1.095-.182-1.551-.456l-7.207-4.835c-.365-.274-.456-.821-.183-1.277.274-.365.821-.456 1.278-.183l7.207 4.835c.273.183.73.183 1.003 0l7.207-4.835c.456-.273 1.004-.182 1.277.274.183.365.091.912-.273 1.186z" fill="currentColor"/></svg>
